src/main/resources/cards/fronts/spades_3.svg

<?xml version="1.0" encoding="UTF-8" standalone="no"?>
<!-- Created with Inkscape (http://www.inkscape.org/) -->

<svg
   xmlns:dc="http://purl.org/dc/elements/1.1/"
   xmlns:cc="http://creativecommons.org/ns#"
   xmlns:rdf="http://www.w3.org/1999/02/22-rdf-syntax-ns#"
   xmlns:svg="http://www.w3.org/2000/svg"
   xmlns="http://www.w3.org/2000/svg"
   xmlns:sodipodi="http://sodipodi.sourceforge.net/DTD/sodipodi-0.dtd"
   xmlns:inkscape="http://www.inkscape.org/namespaces/inkscape"
   width="234"
   height="333.00003"
   id="svg2"
   version="1.1"
   inkscape:version="0.92.4 (5da689c313, 2019-01-14)"
   sodipodi:docname="spades_3.svg"
   inkscape:export-filename="C:\Users\fowle\OneDrive\Projects\Playing-Cards\fronts\png-096-dpi\spades_3.png"
   inkscape:export-xdpi="96"
   inkscape:export-ydpi="96">
  <title
     id="title896">Three of Spades Playing Card</title>
  <defs
     id="defs4" />
  <sodipodi:namedview
     id="base"
     pagecolor="#ffffff"
     bordercolor="#666666"
     borderopacity="1.0"
     inkscape:pageopacity="0.0"
     inkscape:pageshadow="2"
     inkscape:zoom="2.1916676"
     inkscape:cx="173.50725"
     inkscape:cy="163.89266"
     inkscape:document-units="px"
     inkscape:current-layer="layer1"
     showgrid="false"
     inkscape:showpageshadow="false"
     showguides="true"
     inkscape:guide-bbox="true"
     inkscape:snap-global="true"
     inkscape:window-width="1456"
     inkscape:window-height="976"
     inkscape:window-x="428"
     inkscape:window-y="15"
     inkscape:window-maximized="0"
     fit-margin-top="0"
     fit-margin-left="0"
     fit-margin-right="0"
     fit-margin-bottom="0"
     showborder="false">
    <inkscape:grid
       type="xygrid"
       id="grid3767"
       empspacing="5"
       visible="true"
       enabled="true"
       snapvisiblegridlinesonly="true"
       originx="0"
       originy="5.1666068e-06" />
  </sodipodi:namedview>
  <metadata
     id="metadata7">
    <rdf:RDF>
      <cc:Work
         rdf:about="">
        <dc:format>image/svg+xml</dc:format>
        <dc:type
           rdf:resource="http://purl.org/dc/dcmitype/StillImage" />
        <dc:title>Three of Spades Playing Card</dc:title>
        <cc:license
           rdf:resource="http://creativecommons.org/publicdomain/zero/1.0/" />
        <dc:date>2020-05-05</dc:date>
        <dc:creator>
          <cc:Agent>
            <dc:title>Daniel S. Fowler</dc:title>
          </cc:Agent>
        </dc:creator>
        <dc:rights>
          <cc:Agent>
            <dc:title>Public Domain</dc:title>
          </cc:Agent>
        </dc:rights>
        <dc:publisher>
          <cc:Agent>
            <dc:title>https://tekeye.uk</dc:title>
          </cc:Agent>
        </dc:publisher>
        <dc:language>en-GB</dc:language>
        <dc:subject>
          <rdf:Bag>
            <rdf:li>three; spades; playing; card; black; white</rdf:li>
          </rdf:Bag>
        </dc:subject>
        <dc:description>A three of spades playing card.</dc:description>
      </cc:Work>
      <cc:License
         rdf:about="http://creativecommons.org/publicdomain/zero/1.0/">
        <cc:permits
           rdf:resource="http://creativecommons.org/ns#Reproduction" />
        <cc:permits
           rdf:resource="http://creativecommons.org/ns#Distribution" />
        <cc:permits
           rdf:resource="http://creativecommons.org/ns#DerivativeWorks" />
      </cc:License>
    </rdf:RDF>
  </metadata>
  <g
     inkscape:label="Layer 1"
     inkscape:groupmode="layer"
     id="layer1"
     transform="translate(0,-719.36216)">
    <g
       id="g917">
      <rect
         rx="8.9191856"
         ry="8.9457436"
         y="719.74011"
         x="0.37795275"
         height="332.24411"
         width="233.24409"
         id="rect4266"
         style="fill:#ffffff;fill-opacity:1;stroke:#808080;stroke-width:0.75590551;stroke-linecap:butt;stroke-linejoin:miter;stroke-miterlimit:4;stroke-dasharray:none;stroke-opacity:1" />
      <g
         transform="matrix(0.07348588,0,0,0.07370838,-248.01731,933.60062)"
         id="g4233"
         style="fill:none;stroke:#000000;stroke-width:3.18132639;stroke-opacity:1" />
      <g
         clip-path="none"
         style="fill:none;stroke:#000000;stroke-width:3.18132639;stroke-opacity:1"
         id="g4211"
         transform="matrix(0.07348588,0,0,0.07370838,-248.01728,933.60062)" />
      <g
         transform="matrix(0.07348588,0,0,0.07370838,-248.01731,933.60062)"
         id="g4227"
         style="fill:none;stroke:#000000;stroke-width:3.18132639;stroke-opacity:1" />
      <path
         sodipodi:nodetypes="cccccccccccccccc"
         inkscape:connector-curvature="0"
         id="path2985-3-11"
         d="m 12.898825,780.70209 c 0,-0.55605 -0.03079,-0.95768 -0.03079,-1.51377 1.149566,0 2.395148,0 3.544708,0 0,-1.3218 0,-1.41528 0,-2.73712 -2.243931,0.0723 -4.67246,0.23894 -6.7739019,-0.687 -1.6266179,-0.89273 -2.075448,-2.97087 -1.7474947,-4.67934 0.2807048,-1.92755 1.3522742,-3.6393 2.7501936,-4.95764 1.819108,-1.94577 4.139071,-3.2593 6.561151,-4.31616 2.472354,1.07475 4.843466,2.43125 6.685643,4.42831 1.659299,1.55933 2.764852,3.76316 2.730888,6.0706 0.03599,1.6655 -0.995685,3.42548 -2.697384,3.78891 -1.903705,0.52719 -3.830472,0.43365 -5.784745,0.35232 0,1.32184 0,1.41532 0,2.73712 1.14956,0 2.203119,0 3.352688,0 0,0.55609 0.03079,0.95772 0.03079,1.51377 -2.632285,-0.0186 -5.778625,-0.0186 -8.621752,0 z"
         style="fill:#000000;stroke:none;stroke-width:1" />
      <path
         sodipodi:nodetypes="cccccccccccccccc"
         inkscape:connector-curvature="0"
         id="path2985-3-11-7"
         d="m 212.48766,991.02222 c 0,0.55606 -0.0308,0.95768 -0.0308,1.51377 1.14955,0 2.39513,0 3.54471,0 0,1.3218 0,1.41528 0,2.73712 -2.24393,-0.0723 -4.67248,-0.23894 -6.77391,0.687 -1.62662,0.89273 -2.07544,2.97087 -1.7475,4.67939 0.28071,1.9275 1.35228,3.6392 2.75018,4.9576 1.81912,1.9458 4.13909,3.2593 6.56118,4.3161 2.47235,-1.0747 4.84345,-2.4312 6.68563,-4.4283 1.65931,-1.5593 2.76487,-3.7631 2.73088,-6.07056 0.036,-1.6655 -0.99569,-3.42548 -2.69737,-3.78891 -1.90372,-0.52719 -3.83047,-0.43365 -5.78475,-0.35232 0,-1.32184 0,-1.41532 0,-2.73712 1.14955,0 2.20314,0 3.35269,0 0,-0.55609 0.0307,-0.95771 0.0307,-1.51377 -2.63231,0.0186 -5.77863,0.0186 -8.62177,0 z"
         style="fill:#000000;stroke:none;stroke-width:1" />
      <path
         sodipodi:nodetypes="cccccccccccccccc"
         inkscape:connector-curvature="0"
         id="path2985-3-3"
         d="m 104.07979,814.07624 c 0,-1.66823 -0.0924,-2.87307 -0.0924,-4.5413 3.44871,0 7.18544,0 10.63413,0 0,-3.96545 0,-4.24592 0,-8.2114 -6.7318,0.2169 -14.01738,0.71685 -20.321707,-2.06095 -4.879853,-2.67821 -6.226347,-8.91266 -5.242483,-14.03808 0.842117,-5.78261 4.056819,-10.91785 8.25058,-14.87291 5.45732,-5.83729 12.41721,-9.77784 19.68345,-12.94844 7.41706,3.22422 14.5304,7.29373 20.05693,13.28492 4.97789,4.67796 8.29456,11.2895 8.19266,18.21177 0.10797,4.99649 -2.98706,10.27644 -8.09215,11.36674 -5.71111,1.58155 -11.49141,1.30096 -17.35423,1.05695 0,3.96548 0,4.24595 0,8.2114 3.44868,0 6.60935,0 10.05806,0 0,1.66823 0.0924,2.87307 0.0924,4.5413 -7.89686,-0.0556 -17.33588,-0.0556 -25.86526,0 z"
         style="fill:#000000;stroke:none;stroke-width:1" />
      <path
         sodipodi:nodetypes="cccccccccccccccc"
         inkscape:connector-curvature="0"
         id="path2985-3-3-5-4-3"
         d="m 104.07979,914.1987 c 0,-1.66824 -0.0924,-2.87307 -0.0924,-4.54131 3.4487,0 7.18544,0 10.63412,0 0,-3.96545 0,-4.24592 0,-8.21139 -6.73179,0.2169 -14.01738,0.71685 -20.321703,-2.06095 -4.879857,-2.67822 -6.226351,-8.91266 -5.242487,-14.03808 0.842117,-5.78261 4.056822,-10.91785 8.250583,-14.87291 5.457327,-5.8373 12.417217,-9.77784 19.683447,-12.94845 7.41706,3.22423 14.5304,7.29373 20.05693,13.28493 4.97789,4.67795 8.29456,11.2895 8.19267,18.21177 0.10796,4.99649 -2.98707,10.27644 -8.09216,11.36673 -5.71111,1.58156 -11.49141,1.30097 -17.35423,1.05696 0,3.96547 0,4.24594 0,8.21139 3.44868,0 6.60936,0 10.05806,0 0,1.66824 0.0924,2.87307 0.0924,4.54131 -7.89686,-0.0556 -17.33587,-0.0556 -25.86526,0 z"
         style="fill:#000000;stroke:none;stroke-width:1" />
      <path
         sodipodi:nodetypes="cccccccccccccccc"
         inkscape:connector-curvature="0"
         id="path2985-3-38-2"
         d="m 104.07979,957.64807 c 0,1.66823 -0.0924,2.87307 -0.0924,4.54131 3.44871,0 7.18544,0 10.63413,0 0,3.96548 0,4.24591 0,8.21139 -6.7318,-0.2169 -14.01738,-0.71685 -20.321707,2.06098 -4.879853,2.67818 -6.226347,8.91263 -5.242483,14.03805 0.842117,5.78261 4.056819,10.91788 8.25058,14.8729 5.45732,5.8373 12.41721,9.7779 19.68345,12.9485 7.41706,-3.2242 14.5304,-7.2937 20.05693,-13.285 4.97789,-4.67793 8.29456,-11.28947 8.19266,-18.21174 0.10797,-4.99646 -2.98706,-10.27644 -8.09215,-11.3667 -5.71111,-1.58159 -11.49141,-1.301 -17.35423,-1.05699 0,-3.96548 0,-4.24591 0,-8.21139 3.44868,0 6.60935,0 10.05806,0 0,-1.66824 0.0924,-2.87308 0.0924,-4.54131 -7.89686,0.0556 -17.33588,0.0556 -25.86526,0 z"
         style="fill:#000000;stroke:none;stroke-width:1" />
      <g
         id="text3755-0"
         style="font-style:normal;font-variant:normal;font-weight:bold;font-stretch:normal;font-size:3.77201176px;line-height:0%;font-family:'Levenim MT';-inkscape-font-specification:'Sans Bold';letter-spacing:0px;word-spacing:0px;fill:#000000;fill-opacity:1;stroke:none;stroke-width:1"
         transform="scale(1.0092549,0.99083001)"
         aria-label="3">
        <path
           id="path901"
           style="font-size:39.92524338px;line-height:1.25;stroke-width:1"
           d="m 26.376029,754.4354 q 0,3.97693 -2.787749,6.12135 -2.514823,1.94948 -6.589225,1.94948 -9.2794998,0 -9.2794998,-8.77264 0,-0.40939 0.1364633,-0.77979 0.2924212,-0.17545 0.6628214,-0.17545 h 2.5343171 q 0.3704,0 0.682316,0.17545 0.09747,0.27293 0.155958,0.64333 0.331411,2.41735 1.364633,3.50905 1.15019,1.20868 3.528549,1.20868 1.949475,0 3.177644,-1.05272 1.286653,-1.13069 1.286653,-3.04118 0,-4.05491 -4.425308,-4.75672 -0.545853,-0.078 -0.818779,-0.23394 -0.155958,-0.31191 -0.155958,-3.15814 0,-0.3704 0.175453,-0.70182 1.462106,-0.42888 2.924212,-0.87726 1.540085,-0.70181 1.540085,-2.94371 0,-3.39208 -3.976929,-3.39208 -1.832506,0 -2.865727,0.89676 -0.545853,0.48737 -1.130696,1.65705 -0.428884,0.89676 -0.857769,0.89676 H 9.1426718 q -0.9552426,0 -0.9552426,-0.85777 0,-3.25562 2.5538118,-5.14661 2.30038,-1.69605 5.653477,-1.69605 3.85996,0 6.296803,1.61807 2.865728,1.89099 2.865728,5.57549 0,4.44481 -4.386318,6.04338 5.205098,2.2029 5.205098,7.29103 z" />
      </g>
      <g
         id="text3755-2-2"
         style="font-style:normal;font-variant:normal;font-weight:bold;font-stretch:normal;font-size:3.77201176px;line-height:0%;font-family:'Levenim MT';-inkscape-font-specification:'Sans Bold';letter-spacing:0px;word-spacing:0px;fill:#000000;fill-opacity:1;stroke:none;stroke-width:1"
         transform="scale(-1.0092549,-0.99083001)"
         aria-label="3">
        <path
           id="path898"
           style="font-size:39.92524338px;line-height:1.25;stroke-width:1"
           d="m -205.47817,-1033.6859 q 0,3.9769 -2.78775,6.1213 -2.51482,1.9495 -6.58923,1.9495 -9.2795,0 -9.2795,-8.7726 0,-0.4094 0.13647,-0.7798 0.29242,-0.1755 0.66282,-0.1755 h 2.53432 q 0.3704,0 0.68231,0.1755 0.0975,0.2729 0.15596,0.6433 0.33141,2.4173 1.36463,3.509 1.15019,1.2087 3.52855,1.2087 1.94948,0 3.17765,-1.0527 1.28665,-1.1307 1.28665,-3.0412 0,-4.0549 -4.42531,-4.7567 -0.54585,-0.078 -0.81878,-0.2339 -0.15596,-0.3119 -0.15596,-3.1582 0,-0.3704 0.17546,-0.7018 1.4621,-0.4289 2.92421,-0.8773 1.54008,-0.7018 1.54008,-2.9437 0,-3.392 -3.97692,-3.392 -1.83251,0 -2.86573,0.8967 -0.54585,0.4874 -1.1307,1.6571 -0.42888,0.8967 -0.85777,0.8967 h -2.51482 q -0.95524,0 -0.95524,-0.8577 0,-3.2557 2.55381,-5.1467 2.30038,-1.696 5.65348,-1.696 3.85996,0 6.2968,1.6181 2.86573,1.8909 2.86573,5.5755 0,4.4448 -4.38632,6.0433 5.2051,2.2029 5.2051,7.2911 z" />
      </g>
    </g>
  </g>
</svg>

<svg width="234" height="333.00003" xmlns="http://www.w3.org/2000/svg">
    <g id="layer1" transform="matrix(1 0 0 1 0 -719.3622)">
        <g id="g917">
            <path id="rect4266" fill="#ffffff" stroke="#808080" stroke-width="0.7559055" d="M 9.297138 719.7401 L 224.70288 719.7401 C 229.6288 719.7401 233.62206 723.74524 233.62206 728.68585 L 233.62206 1043.0385 C 233.62207 1045.411 232.68237 1047.6864 231.0097 1049.3641 C 229.33702 1051.0417 227.06839 1051.9843 224.70288 1051.9843 L 9.297138 1051.9843 C 6.9316134 1051.9843 4.662975 1051.0417 2.9903018 1049.3641 C 1.3176281 1047.6864 0.3779376 1045.411 0.37795275 1043.0385 L 0.37795275 728.68585 C 0.37795484 723.74524 4.3712096 719.7401 9.297138 719.7401 Z"/>
            <g id="g4233" transform="matrix(0.07348588 0 0 0.07370838 -248.0173 933.60065)"/>
            <g id="g4211" transform="matrix(0.07348588 0 0 0.07370838 -248.01726 933.60065)"/>
            <g id="g4227" transform="matrix(0.07348588 0 0 0.07370838 -248.0173 933.60065)"/>
            <path id="path2985-3-11" fill="#000000" stroke="none" d="M 12.898825 780.7021 C 12.898825 780.14606 12.868036 779.7444 12.868036 779.1883 C 14.017601 779.1883 15.263182 779.1883 16.412743 779.1883 C 16.412743 777.8665 16.412743 777.77295 16.412743 776.4512 C 14.168812 776.52356 11.740283 776.6902 9.638841 775.7642 C 8.012223 774.87146 7.563393 772.7933 7.8913465 771.08484 C 8.172051 769.1573 9.243621 767.44556 10.64154 766.1272 C 12.460648 764.18146 14.78061 762.868 17.20269 761.81104 C 19.675045 762.8858 22.046156 764.2423 23.888336 766.2394 C 25.547632 767.7987 26.653187 770.00256 26.619223 772.31 C 26.655212 773.97546 25.623537 775.7355 23.921839 776.0989 C 22.018133 776.6261 20.091366 776.53253 18.137093 776.4512 C 18.137093 777.77295 18.137093 777.8665 18.137093 779.1883 C 19.286654 779.1883 20.340212 779.1883 21.489779 779.1883 C 21.489779 779.7444 21.52057 780.14606 21.52057 780.7021 C 18.888287 780.68353 15.741945 780.68353 12.898819 780.7021 Z"/>
            <path id="path2985-3-11-7" fill="#000000" stroke="none" d="M 212.48766 991.0222 C 212.48766 991.57825 212.45686 991.9799 212.45686 992.536 C 213.60641 992.536 214.85199 992.536 216.00157 992.536 C 216.00157 993.8578 216.00157 993.95135 216.00157 995.27313 C 213.75764 995.2008 211.32909 995.0342 209.22765 995.9601 C 207.60104 996.85284 207.15224 998.931 207.48016 1000.6395 C 207.76085 1002.567 208.83244 1004.2787 210.23035 1005.5971 C 212.04945 1007.5429 214.36943 1008.8563 216.7915 1009.9132 C 219.26387 1008.8385 221.63496 1007.482 223.47717 1005.4849 C 225.13646 1003.9256 226.24203 1001.7218 226.20804 999.4143 C 226.24403 997.74884 225.21234 995.98883 223.51067 995.6254 C 221.60693 995.09827 219.68019 995.1918 217.7259 995.27313 C 217.7259 993.95135 217.7259 993.8578 217.7259 992.536 C 218.87546 992.536 219.92905 992.536 221.07858 992.536 C 221.07858 991.9799 221.10928 991.57825 221.10928 991.0222 C 218.47699 991.0408 215.33067 991.0408 212.48753 991.0222 Z"/>
            <path id="path2985-3-3" fill="#000000" stroke="none" d="M 104.07979 814.07623 C 104.07979 812.408 103.98738 811.2032 103.98738 809.5349 C 107.4361 809.5349 111.17284 809.5349 114.62152 809.5349 C 114.62152 805.5695 114.62152 805.289 114.62152 801.3236 C 107.88972 801.5405 100.60414 802.0404 94.29981 799.2626 C 89.41996 796.58435 88.07346 790.3499 89.057335 785.2245 C 89.899445 779.44196 93.11415 774.30664 97.30791 770.3516 C 102.76523 764.5143 109.72512 760.5737 116.99136 757.40314 C 124.40841 760.6274 131.52176 764.6969 137.0483 770.6881 C 142.02618 775.366 145.34285 781.9776 145.24095 788.89984 C 145.34892 793.89636 142.25389 799.1763 137.1488 800.26654 C 131.43768 801.84814 125.65739 801.56757 119.79458 801.3236 C 119.79458 805.289 119.79458 805.5695 119.79458 809.5349 C 123.24324 809.5349 126.40392 809.5349 129.85263 809.5349 C 129.85263 811.2032 129.94502 812.408 129.94502 814.07623 C 122.04817 814.0206 112.60915 814.0206 104.07977 814.07623 Z"/>
            <path id="path2985-3-3-5-4-3" fill="#000000" stroke="none" d="M 104.07979 914.19867 C 104.07979 912.53046 103.98738 911.3256 103.98738 909.65735 C 107.4361 909.65735 111.17284 909.65735 114.62151 909.65735 C 114.62151 905.69196 114.62151 905.41144 114.62151 901.446 C 107.88972 901.6629 100.604126 902.16284 94.299805 899.3851 C 89.41995 896.7069 88.07345 890.4725 89.05732 885.347 C 89.89944 879.56433 93.11414 874.42914 97.30791 870.47406 C 102.76523 864.6368 109.72512 860.6962 116.99135 857.52563 C 124.40841 860.7498 131.52174 864.81934 137.04828 870.8106 C 142.02617 875.48846 145.34283 882.10004 145.24095 889.0223 C 145.3489 894.01874 142.25388 899.29877 137.14879 900.38904 C 131.43768 901.9706 125.65737 901.69 119.79456 901.446 C 119.79456 905.41144 119.79456 905.69196 119.79456 909.65735 C 123.24324 909.65735 126.40392 909.65735 129.85262 909.65735 C 129.85262 911.3256 129.94502 912.53046 129.94502 914.19867 C 122.04816 914.1431 112.60915 914.1431 104.07976 914.19867 Z"/>
            <path id="path2985-3-38-2" fill="#000000" stroke="none" d="M 104.07979 957.6481 C 104.07979 959.3163 103.98738 960.5211 103.98738 962.1894 C 107.4361 962.1894 111.17284 962.1894 114.62152 962.1894 C 114.62152 966.1548 114.62152 966.4353 114.62152 970.40076 C 107.88972 970.1839 100.60414 969.6839 94.29981 972.46173 C 89.41996 975.13995 88.07346 981.3744 89.057335 986.4998 C 89.899445 992.28235 93.11415 997.4177 97.30791 1001.37274 C 102.76523 1007.21 109.72512 1011.1506 116.99136 1014.3212 C 124.40841 1011.0969 131.52176 1007.02747 137.0483 1001.0362 C 142.02618 996.35834 145.34285 989.7467 145.24095 982.82446 C 145.34892 977.828 142.25389 972.54803 137.1488 971.45776 C 131.43768 969.8762 125.65739 970.1568 119.79458 970.40076 C 119.79458 966.4353 119.79458 966.1548 119.79458 962.1894 C 123.24324 962.1894 126.40392 962.1894 129.85263 962.1894 C 129.85263 960.5211 129.94502 959.3163 129.94502 957.6481 C 122.04817 957.7037 112.60915 957.7037 104.07977 957.6481 Z"/>
            <g id="text3755-0" transform="matrix(1.0092549 0 0 0.99083 0 0)">
                <path id="path901" fill="#000000" stroke="none" d="M 26.376028 754.4354 Q 26.376028 758.41235 23.58828 760.55676 Q 21.073458 762.5062 16.999056 762.5062 Q 7.7195554 762.5062 7.7195554 753.7335 Q 7.7195554 753.3242 7.8560185 752.95386 Q 8.148439 752.77826 8.51884 752.77826 L 11.053157 752.77826 Q 11.423557 752.77826 11.735473 752.95386 Q 11.832943 753.2267 11.891431 753.59705 Q 12.222841 756.01447 13.256064 757.1062 Q 14.406254 758.3148 16.784613 758.3148 Q 18.734089 758.3148 19.962257 757.26215 Q 21.24891 756.1314 21.24891 754.22095 Q 21.24891 750.1661 16.823603 749.46423 Q 16.277748 749.3862 16.004824 749.23035 Q 15.848864 748.9184 15.848864 746.07214 Q 15.848864 745.7018 16.024319 745.37036 Q 17.486423 744.94147 18.94853 744.49316 Q 20.488615 743.79126 20.488615 741.5493 Q 20.488615 738.1573 16.511686 738.1573 Q 14.679179 738.1573 13.645958 739.0541 Q 13.100106 739.5415 12.515263 740.7111 Q 12.086379 741.60785 11.657494 741.60785 L 9.142672 741.60785 Q 8.187429 741.60785 8.187429 740.75006 Q 8.187429 737.49445 10.741241 735.60345 Q 13.041622 733.9074 16.394718 733.9074 Q 20.254679 733.9074 22.69152 735.5255 Q 25.557247 737.4165 25.557247 741.101 Q 25.557247 745.54584 21.17093 747.1443 Q 26.376028 749.3473 26.376028 754.4354 Z"/>
            </g>
            <g id="text3755-2-2" transform="matrix(-1.0092549 0 0 -0.99083 0 0)">
                <path id="path898" fill="#000000" stroke="none" d="M -205.47818 -1033.6859 Q -205.47818 -1029.709 -208.26591 -1027.5646 Q -210.78075 -1025.6151 -214.85515 -1025.6151 Q -224.13463 -1025.6151 -224.13463 -1034.3877 Q -224.13463 -1034.7971 -223.99818 -1035.1675 Q -223.70576 -1035.343 -223.33536 -1035.343 L -220.80104 -1035.343 Q -220.43065 -1035.343 -220.11873 -1035.1675 Q -220.02122 -1034.8947 -219.96278 -1034.5242 Q -219.63136 -1032.1069 -218.59816 -1031.0153 Q -217.44795 -1029.8065 -215.0696 -1029.8065 Q -213.12012 -1029.8065 -211.89194 -1030.8593 Q -210.60529 -1031.9899 -210.60529 -1033.9004 Q -210.60529 -1037.9553 -215.0306 -1038.6571 Q -215.57645 -1038.7351 -215.8494 -1038.891 Q -216.00534 -1039.2029 -216.00534 -1042.0492 Q -216.00534 -1042.4196 -215.82988 -1042.751 Q -214.36778 -1043.1799 -212.90567 -1043.6283 Q -211.36559 -1044.3301 -211.36559 -1046.572 Q -211.36559 -1049.964 -215.34251 -1049.964 Q -217.17502 -1049.964 -218.20824 -1049.0673 Q -218.75409 -1048.58 -219.33894 -1047.4102 Q -219.76782 -1046.5135 -220.19672 -1046.5135 L -222.71155 -1046.5135 Q -223.66676 -1046.5135 -223.66676 -1047.3712 Q -223.66676 -1050.627 -221.11296 -1052.518 Q -218.81258 -1054.2139 -215.45947 -1054.2139 Q -211.59952 -1054.2139 -209.16267 -1052.5958 Q -206.29695 -1050.705 -206.29695 -1047.0203 Q -206.29695 -1042.5754 -210.68327 -1040.977 Q -205.47818 -1038.774 -205.47818 -1033.6859 Z"/>
            </g>
        </g>
    </g>
</svg>
